world_stage/static/flags/rect/irl.svg

<svg height="800" viewBox="0 0 1196.6667 800" width="1196.6667" xmlns="http://www.w3.org/2000/svg"><g transform="matrix(1.3333333 0 0 -1.3333333 0 800)"><path d="m0 0h299.166v600h-299.166z" fill="#009b48"/><path d="m299.166 0h299.166v600h-299.166z" fill="#fff"/><path d="m598.333 0h299.167v600h-299.167z" fill="#ff7900"/></g></svg>

<?xml version="1.0" encoding="UTF-8" standalone="no"?>
<!-- Created with Inkscape (http://www.inkscape.org/) -->

<svg
   version="1.1"
   id="svg1"
   width="1196.6667"
   height="800"
   viewBox="0 0 1196.6667 800"
   sodipodi:docname="ie.ai"
   xmlns:inkscape="http://www.inkscape.org/namespaces/inkscape"
   xmlns:sodipodi="http://sodipodi.sourceforge.net/DTD/sodipodi-0.dtd"
   xmlns="http://www.w3.org/2000/svg"
   xmlns:svg="http://www.w3.org/2000/svg">
  <defs
     id="defs1" />
  <sodipodi:namedview
     id="namedview1"
     pagecolor="#ffffff"
     bordercolor="#000000"
     borderopacity="0.25"
     inkscape:showpageshadow="2"
     inkscape:pageopacity="0.0"
     inkscape:pagecheckerboard="0"
     inkscape:deskcolor="#d1d1d1">
    <inkscape:page
       x="0"
       y="0"
       inkscape:label="1"
       id="page1"
       width="1196.6667"
       height="800"
       margin="0"
       bleed="0" />
  </sodipodi:namedview>
  <g
     id="layer-MC0"
     inkscape:groupmode="layer"
     inkscape:label="Layer 1">
    <path
       id="path1"
       d="M 0,0 H 299.166 V 600 H 0 Z"
       style="fill:#009b48;fill-opacity:1;fill-rule:nonzero;stroke:none"
       transform="matrix(1.3333333,0,0,-1.3333333,0,800)" />
    <path
       id="path2"
       d="M 299.166,0 H 598.332 V 600 H 299.166 Z"
       style="fill:#ffffff;fill-opacity:1;fill-rule:nonzero;stroke:none"
       transform="matrix(1.3333333,0,0,-1.3333333,0,800)" />
    <path
       id="path3"
       d="M 598.333,0 H 897.5 V 600 H 598.333 Z"
       style="fill:#ff7900;fill-opacity:1;fill-rule:nonzero;stroke:none"
       transform="matrix(1.3333333,0,0,-1.3333333,0,800)" />
  </g>
</svg>
